icons/project-24.svg

<svg xmlns="http://www.w3.org/2000/svg" width="24" height="24" viewBox="0 0 24 24">
  <defs/>
  <path d="M7.25,6 A0.75 0.75 0 0 0 6.5,6.75 L6.5,14.25 A0.75 0.75 0 0 0 8,14.25 L8,6.75 A0.75 0.75 0 0 0 7.25,6 Z M12,6 A0.75 0.75 0 0 0 11.25,6.75 L11.25,11.25 A0.75 0.75 0 0 0 12.75,11.25 L12.75,6.75 A0.75 0.75 0 0 0 12,6 Z M16,6.75 A0.75 0.75 0 0 1 17.5,6.75 L17.5,16.25 A0.75 0.75 0 0 1 16,16.25 L16,6.75 Z"/>
  <path d="M3.75,2 L20.25,2 C21.216,2 22,2.784 22,3.75 L22,20.25 C22,21.216 21.216,22 20.25,22 L3.75,22 C2.784,22 2,21.216 2,20.25 L2,3.75 C2,2.784 2.784,2 3.75,2 Z M3.5,3.75 L3.5,20.25 C3.5,20.388 3.612,20.5 3.75,20.5 L20.25,20.5 C20.388,20.5 20.5,20.388 20.5,20.25 L20.5,3.75 C20.5,3.612 20.388,3.5 20.25,3.5 L3.75,3.5 C3.612,3.5 3.5,3.612 3.5,3.75 Z"/>
</svg>

<svg xmlns="http://www.w3.org/2000/svg" width="24" height="24" viewBox="0 0 24 24"><path d="M7.25 6a.75.75 0 00-.75.75v7.5a.75.75 0 001.5 0v-7.5A.75.75 0 007.25 6zM12 6a.75.75 0 00-.75.75v4.5a.75.75 0 001.5 0v-4.5A.75.75 0 0012 6zm4 .75a.75.75 0 011.5 0v9.5a.75.75 0 01-1.5 0v-9.5z"/><path fill-rule="evenodd" d="M3.75 2A1.75 1.75 0 002 3.75v16.5c0 .966.784 1.75 1.75 1.75h16.5A1.75 1.75 0 0022 20.25V3.75A1.75 1.75 0 0020.25 2H3.75zM3.5 3.75a.25.25 0 01.25-.25h16.5a.25.25 0 01.25.25v16.5a.25.25 0 01-.25.25H3.75a.25.25 0 01-.25-.25V3.75z"/></svg>
